X: 142
T: Mr Morthland's Reel
R: reel
M: C
L: 1/8
Z: 2012 John Chambers <jc:trillian.mit.edu>
B: J. Anderson "Budget of Strathspeys, Reels and Country Dances" (Early 1800s) p.14 #2
F: http://imslp.org/wiki/Anderson%27s_Budget_of_Strathspeys,_Reels_and_Country_Dances_(Various)
K: Am
|:\
A3B (cd)e.c | B2(Bg) BGdB | A3B cdea | gedB A/A/AA2 :|
aeab ac'ba | (gd).g.a (gb).a.g | aeab ac'ba | gedB A/A/AA2 |
(ae).a.b (ac').b.a | gaba gedg | eg.a.b ag.e.b | gedB A/A/AA2 |]

%%sep 2 1 500
%%sep 1 1 500

